dist/icons/svgs/arrow-left-solid.svg

<svg xmlns="http://www.w3.org/2000/svg" width="24" height="24" fill="currentcolor" class="icon-arrow-left-solid" viewBox="0 0 24 24">
  <path d="M3.60156 11.1406L9.85156 4.89062C10.3203 4.38281 11.1406 4.38281 11.6094 4.89062C12.1172 5.35938 12.1172 6.17969 11.6094 6.64844L7.50781 10.75H19.5C20.1641 10.75 20.75 11.3359 20.75 12C20.75 12.7031 20.1641 13.25 19.5 13.25H7.50781L11.6094 17.3906C12.1172 17.8594 12.1172 18.6797 11.6094 19.1484C11.1406 19.6562 10.3203 19.6562 9.85156 19.1484L3.60156 12.8984C3.09375 12.4297 3.09375 11.6094 3.60156 11.1406Z"/>
</svg>

<svg xmlns="http://www.w3.org/2000/svg" width="24" height="24" fill="currentColor" class="icon-arrow-left-solid" viewBox="0 0 24 24">
  <path d="m3.602 11.14 6.25-6.25a1.205 1.205 0 0 1 1.757 0c.508.47.508 1.29 0 1.758L7.508 10.75H19.5c.664 0 1.25.586 1.25 1.25 0 .703-.586 1.25-1.25 1.25H7.508l4.101 4.14c.508.47.508 1.29 0 1.758a1.205 1.205 0 0 1-1.757 0l-6.25-6.25a1.205 1.205 0 0 1 0-1.757"/>
</svg>
